; generated by Slic3r 1.1.7 on 2015-02-27 at 18:54:15

; perimeters extrusion width = 0.50mm
; infill extrusion width = 0.87mm
; solid infill extrusion width = 0.85mm
; top infill extrusion width = 0.85mm
; support material extrusion width = 0.50mm

G21 ; set units to millimeters
M107
M190 S65 ; wait for bed temperature to be reached
M104 S200 ; set temperature
G28 Z0
M83
M109 S200 ; wait for temperature to be reached
G90 ; use absolute coordinates
M83 ; use relative distances for extrusion
G1 F3600.000 E-2.40000
G1 Z0.360 F15000.000
G1 X45.767 Y57.382 F15000.000
G1 E2.40000 F3600.000
G1 X48.783 Y55.372 E0.39906 F1200.000
G1 X52.166 Y54.070 E0.39906
G1 X56.355 Y53.529 E0.46505
G1 X58.991 Y53.541 E0.29027
G1 X63.987 Y53.734 E0.55051 F1200.000
G1 X65.319 Y53.835 E0.14700
G1 X70.240 Y54.408 E0.54554
G1 X71.355 Y54.570 E0.12401
G1 X133.926 Y65.820 E6.99960
G1 X136.275 Y66.463 E0.26812
G1 X138.182 Y67.252 E0.22723
G1 X140.126 Y68.343 E0.24542
G1 X141.924 Y69.668 E0.24586
G1 X143.552 Y71.213 E0.24715
G1 X156.657 Y85.824 E2.16096
G1 X158.191 Y87.822 E0.27736
G1 X159.187 Y89.350 E0.20083
G1 X160.522 Y91.841 E0.31119
G1 X161.242 Y93.517 E0.20074
G1 X162.131 Y96.200 E0.31129
G1 X162.554 Y97.973 E0.20068
G1 X162.972 Y100.770 E0.31134
G1 X163.085 Y102.589 E0.20068
G1 X163.018 Y105.416 E0.31135
G1 X162.818 Y107.229 E0.20077
G1 X162.268 Y110.002 E0.31123
G1 X161.762 Y111.753 E0.20068
G1 X160.746 Y114.392 E0.31135
G1 X159.947 Y116.031 E0.20076
G1 X158.495 Y118.457 E0.31126
G1 X157.428 Y119.934 E0.20068
G1 X155.581 Y122.076 E0.31134
G1 X154.277 Y123.350 E0.20068
G1 X152.092 Y125.144 E0.31135
G1 X150.589 Y126.176 E0.20070
G1 X148.129 Y127.571 E0.31132
G1 X146.472 Y128.330 E0.20070
G1 X144.507 Y129.083 E0.23175
G1 X91.051 Y145.727 E6.16415
G1 X86.155 Y146.471 E0.54532
G1 X77.805 Y146.471 E0.91934
G1 X74.202 Y146.072 E0.39906
G1 X70.774 Y144.895 E0.39906
G1 X67.686 Y142.997 E0.39906
G1 X65.452 Y140.896 E0.33766
G1 X56.346 Y130.560 E1.51672
G1 X55.039 Y128.978 E0.22591
G1 X53.469 Y126.715 E0.30325
G1 X52.444 Y124.938 E0.22589
G1 X51.272 Y122.445 E0.30327
G1 X50.147 Y119.259 E0.37195
G1 X40.287 Y84.290 E4.00028
G1 X39.669 Y79.820 E0.49682
G1 X39.669 Y70.180 E1.06137
G1 X40.068 Y66.578 E0.39906
G1 X41.245 Y63.149 E0.39906
G1 X43.143 Y60.062 E0.39906
G1 X45.552 Y57.562 E0.38224
G1 X45.710 Y57.431 E0.02257
G1 X46.182 Y57.994 F15000.000
G1 X49.192 Y55.989 E0.39823 F1200.000
G1 X52.508 Y54.742 E0.39002
G1 X56.355 Y54.264 E0.42675
G1 X58.963 Y54.276 E0.28714
G1 X63.959 Y54.469 E0.55051 F1200.000
G1 X65.234 Y54.566 E0.14075
G1 X70.155 Y55.139 E0.54554
G1 X71.225 Y55.294 E0.11900
G1 X133.776 Y66.540 E6.99737
G1 X136.037 Y67.159 E0.25807
G1 X137.859 Y67.913 E0.21709
G1 X139.724 Y68.959 E0.23542
G1 X141.448 Y70.229 E0.23583
G1 X143.011 Y71.711 E0.23708
G1 X156.110 Y86.315 E2.15991
G1 X157.575 Y88.224 E0.26497
G1 X158.571 Y89.752 E0.20082
G1 X159.846 Y92.132 E0.29729
G1 X160.566 Y93.807 E0.20074
G1 X161.416 Y96.371 E0.29739
G1 X161.839 Y98.144 E0.20068
G1 X162.237 Y100.816 E0.29744
G1 X162.351 Y102.635 E0.20068
G1 X162.286 Y105.336 E0.29744
G1 X162.087 Y107.148 E0.20077
G1 X161.562 Y109.797 E0.29733
G1 X161.055 Y111.548 E0.20068
G1 X160.084 Y114.070 E0.29745
G1 X159.286 Y115.709 E0.20076
G1 X157.898 Y118.026 E0.29736
G1 X156.831 Y119.504 E0.20068
G1 X155.067 Y121.550 E0.29744
G1 X153.763 Y122.823 E0.20068
G1 X151.676 Y124.538 E0.29744
G1 X150.173 Y125.570 E0.20070
G1 X147.823 Y126.902 E0.29741
G1 X146.166 Y127.661 E0.20070
G1 X144.288 Y128.380 E0.22140
G1 X90.832 Y145.024 E6.16415
G1 X86.155 Y145.736 E0.52096
G1 X77.805 Y145.736 E0.91934
G1 X74.285 Y145.337 E0.39002
G1 X70.943 Y144.161 E0.39002
G1 X67.949 Y142.267 E0.39002
G1 X66.004 Y140.409 E0.29617
G1 X56.913 Y130.091 E1.51410
G1 X55.606 Y128.509 E0.22590
G1 X54.106 Y126.348 E0.28970
G1 X53.081 Y124.570 E0.22588
G1 X51.962 Y122.189 E0.28973
G1 X50.855 Y119.060 E0.36542
G1 X40.995 Y84.090 E4.00028
G1 X40.404 Y79.820 E0.47464
G1 X40.404 Y70.180 E1.06137
G1 X40.803 Y66.660 E0.39002
G1 X41.979 Y63.319 E0.39002
G1 X43.873 Y60.325 E0.39002
G1 X46.125 Y58.042 E0.35304
G1 F3600.000 E-2.40000
G1 X56.540 Y70.400 F15000.000
G1 E2.40000 F3600.000
G1 X58.347 Y70.400 E0.19893 F1350.000
G1 X63.335 Y70.593 E0.54956
G1 X68.380 Y71.177 E0.55923 F1350.000
G1 X73.318 Y72.143 E0.55398
G1 X78.221 Y73.507 E0.56030
G1 X82.897 Y75.202 E0.54764
G1 X86.670 Y76.910 E0.45594
G1 X85.867 Y77.319 E0.09916
G1 X85.358 Y77.702 E0.07010
G1 X84.921 Y78.164 E0.07010
G1 X84.568 Y78.694 E0.07010
G1 X84.310 Y79.276 E0.07010
G1 X84.154 Y79.894 E0.07010
G1 X84.105 Y80.528 E0.07010
G1 X84.163 Y81.162 E0.07009
G1 X84.329 Y81.777 E0.07010
G1 X84.595 Y82.355 E0.07009
G1 X84.901 Y82.807 E0.06007
G1 X85.401 Y83.336 E0.08007
G1 X85.906 Y83.704 E0.06888
G1 X86.087 Y83.808 E0.02291
G1 X86.487 Y83.991 E0.04845
G1 X87.097 Y84.173 E0.07009
G1 X87.638 Y84.242 E0.06007
G1 X88.365 Y84.215 E0.08007
G1 X88.986 Y84.075 E0.07009
G1 X89.574 Y83.832 E0.07009
G1 X90.113 Y83.493 E0.07009
G1 X90.523 Y83.133 E0.06007
G1 X90.982 Y82.569 E0.08007
G1 X91.287 Y82.010 E0.07009
G1 X91.493 Y81.408 E0.07009
G1 X91.594 Y80.779 E0.07008
G1 X91.594 Y80.234 E0.06007
G1 X91.463 Y79.420 E0.09067
G1 X96.100 Y82.456 E0.61023
G1 X100.085 Y85.530 E0.55411
G1 X103.820 Y88.901 E0.55385
G1 X107.279 Y92.545 E0.55324
G1 X107.737 Y93.151 E0.08362
G1 X108.101 Y93.810 E0.08288
G1 X108.366 Y94.514 E0.08288
G1 X108.528 Y95.249 E0.08288
G1 X108.583 Y96.014 E0.08447
G1 X108.583 Y106.400 E1.14346
G1 X123.955 Y106.400 E1.69241
G1 X123.955 Y109.279 E0.31700
G1 X123.757 Y109.466 E0.02994
G1 X123.614 Y109.693 E0.02956
G1 X123.554 Y109.955 E0.02956
G1 X123.558 Y110.090 E0.01483
G1 X123.633 Y110.348 E0.02956
G1 X123.788 Y110.567 E0.02956
G1 X124.007 Y110.722 E0.02955
G1 X124.265 Y110.796 E0.02958
G1 X124.533 Y110.781 E0.02954
G1 X124.661 Y110.740 E0.01483
G1 X124.889 Y110.598 E0.02956
G1 X125.075 Y110.400 E0.02994
G1 X128.834 Y110.400 E0.41380
G1 X129.021 Y110.598 E0.02994
G1 X129.128 Y110.679 E0.01483
G1 X129.376 Y110.781 E0.02956
G1 X129.644 Y110.796 E0.02956
G1 X129.776 Y110.770 E0.01483
G1 X130.018 Y110.654 E0.02956
G1 X130.121 Y110.567 E0.01483
G1 X130.277 Y110.348 E0.02957
G1 X130.325 Y110.222 E0.01483
G1 X130.355 Y109.955 E0.02956
G1 X130.295 Y109.693 E0.02956
G1 X130.233 Y109.574 E0.01484
G1 X130.152 Y109.466 E0.01483
G1 X129.955 Y109.279 E0.02994
G1 X129.955 Y107.400 E0.20690
G1 X130.664 Y107.400 E0.07805
G1 X130.820 Y108.051 E0.07372
G1 X131.024 Y108.544 E0.05876
G1 X131.303 Y108.999 E0.05876
G1 X131.650 Y109.405 E0.05876
G1 X132.055 Y109.752 E0.05877
G1 X132.510 Y110.031 E0.05876
G1 X133.004 Y110.235 E0.05876
G1 X133.523 Y110.359 E0.05877
G1 X134.039 Y110.400 E0.05703
G1 X136.049 Y110.400 E0.22127
G1 X137.236 Y110.298 E0.13119
G1 X138.405 Y109.989 E0.13308
G1 X139.504 Y109.486 E0.13309
G1 X140.500 Y108.802 E0.13309
G1 X141.365 Y107.957 E0.13309
G1 X142.073 Y106.977 E0.13309
G1 X142.602 Y105.891 E0.13309
G1 X142.938 Y104.729 E0.13309
G1 X143.065 Y103.576 E0.12773
G1 X142.995 Y102.322 E0.13837
G1 X142.715 Y101.146 E0.13309
G1 X142.238 Y100.035 E0.13309
G1 X141.577 Y99.023 E0.13308
G1 X140.754 Y98.138 E0.13309
G1 X139.791 Y97.407 E0.13308
G1 X138.717 Y96.852 E0.13309
G1 X137.589 Y96.496 E0.13024
G1 X136.590 Y96.226 E0.11396
G1 X135.740 Y95.916 E0.09953
G1 X134.905 Y95.513 E0.10216
G1 X134.100 Y95.020 E0.10387
G1 X133.344 Y94.456 E0.10389
G1 X133.062 Y94.206 E0.04151
G1 X132.642 Y93.829 E0.06206
G1 X131.997 Y93.148 E0.10335
G1 X131.415 Y92.416 E0.10292
G1 X130.897 Y91.641 E0.10265
G1 X130.517 Y90.963 E0.08552
G1 X130.061 Y89.988 E0.11857
G1 X129.745 Y89.120 E0.10168
G1 X129.500 Y88.232 E0.10142
G1 X129.325 Y87.329 E0.10124
G1 X129.220 Y86.417 E0.10111
G1 X129.186 Y85.493 E0.10181
G1 X129.194 Y83.275 E0.24418
G1 X129.287 Y82.995 E0.03255
G1 X129.444 Y82.750 E0.03197
G1 X129.543 Y82.646 E0.01583
G1 X129.777 Y82.476 E0.03191
G1 X129.909 Y82.413 E0.01611
G1 X130.189 Y82.340 E0.03186
G1 X130.510 Y82.342 E0.03532
G1 X130.791 Y82.419 E0.03209
G1 X130.922 Y82.482 E0.01597
G1 X131.155 Y82.656 E0.03203
G1 X131.336 Y82.879 E0.03164
G1 X131.406 Y83.008 E0.01611
G1 X131.459 Y83.144 E0.01608
G1 X131.503 Y83.342 E0.02229
G1 X131.501 Y85.511 E0.23882
G1 X131.537 Y86.223 E0.07848
G1 X131.640 Y86.937 E0.07948
G1 X131.810 Y87.638 E0.07935
G1 X132.044 Y88.317 E0.07917
G1 X132.340 Y88.970 E0.07891
G1 X132.693 Y89.590 E0.07858
G1 X133.096 Y90.173 E0.07800
G1 X133.549 Y90.716 E0.07783
G1 X134.046 Y91.212 E0.07730
G1 X134.578 Y91.663 E0.07679
G1 X135.142 Y92.063 E0.07617
G1 X135.732 Y92.416 E0.07569
G1 X136.340 Y92.719 E0.07479
G1 X137.239 Y93.092 E0.10717
G1 X138.236 Y93.384 E0.11439
G1 X139.928 Y93.917 E0.19527
G1 X141.486 Y94.723 E0.19309
G1 X142.883 Y95.783 E0.19309
G1 X144.078 Y97.067 E0.19310
G1 X145.036 Y98.536 E0.19309
G1 X145.728 Y100.147 E0.19309
G1 X146.135 Y101.853 E0.19309
G1 X146.244 Y103.603 E0.19309
G1 X146.052 Y105.347 E0.19309
G1 X145.565 Y107.031 E0.19309
G1 X144.796 Y108.608 E0.19309
G1 X143.770 Y110.030 E0.19309
G1 X142.515 Y111.255 E0.19309
G1 X141.069 Y112.248 E0.19309
G1 X139.475 Y112.978 E0.19309
G1 X137.779 Y113.425 E0.19309
G1 X136.014 Y113.578 E0.19499
G1 X124.120 Y113.578 E1.30962
G1 X123.524 Y114.647 E0.13483
G1 X122.924 Y115.392 E0.10520
G1 X122.208 Y116.024 E0.10520
G1 X121.395 Y116.525 E0.10520
G1 X120.508 Y116.883 E0.10520
G1 X119.574 Y117.085 E0.10520
G1 X118.620 Y117.126 E0.10520
G1 X117.672 Y117.005 E0.10520
G1 X116.758 Y116.726 E0.10520
G1 X115.905 Y116.296 E0.10520
G1 X115.136 Y115.728 E0.10520
G1 X114.475 Y115.039 E0.10520
G1 X113.939 Y114.247 E0.10520
G1 X113.546 Y113.377 E0.10520
G1 X113.305 Y112.452 E0.10520
G1 X113.190 Y111.100 E0.14940
G1 X98.285 Y111.100 E1.64098
G1 X98.099 Y113.429 E0.25726
G1 X97.638 Y115.311 E0.21334
G1 X96.885 Y117.089 E0.21256
G1 X95.855 Y118.730 E0.21334
G1 X94.578 Y120.185 E0.21308
G1 X93.086 Y121.417 E0.21308
G1 X91.416 Y122.395 E0.21308
G1 X88.806 Y123.407 E0.30820
G1 X88.060 Y123.843 E0.09512
G1 X87.394 Y124.393 E0.09513
G1 X86.824 Y125.043 E0.09512
G1 X86.365 Y125.774 E0.09512
G1 X86.028 Y126.570 E0.09517
G1 X85.822 Y127.410 E0.09521
G1 X85.755 Y128.254 E0.09323
G1 X85.755 Y129.600 E0.14814
G1 X78.205 Y129.600 E0.83126
G1 X78.205 Y127.998 E0.17638
G1 X78.137 Y127.156 E0.09304
G1 X77.933 Y126.319 E0.09481
G1 X77.598 Y125.526 E0.09482
G1 X77.142 Y124.795 E0.09481
G1 X76.575 Y124.147 E0.09481
G1 X75.913 Y123.597 E0.09481
G1 X75.171 Y123.159 E0.09481
G1 X72.527 Y122.113 E0.31315
G1 X70.831 Y121.084 E0.21834
G1 X69.331 Y119.788 E0.21834
G1 X68.068 Y118.259 E0.21834
G1 X67.077 Y116.541 E0.21834
G1 X66.387 Y114.682 E0.21834
G1 X66.016 Y112.734 E0.21834
G1 X65.975 Y110.751 E0.21834
G1 X66.266 Y108.789 E0.21834
G1 X66.879 Y106.903 E0.21834
G1 X67.799 Y105.146 E0.21834
G1 X68.998 Y103.567 E0.21834
G1 X70.444 Y102.210 E0.21834
G1 X72.096 Y101.112 E0.21834
G1 X73.908 Y100.306 E0.21835
G1 X75.828 Y99.813 E0.21834
G1 X78.205 Y99.613 E0.26254
G1 X78.205 Y92.627 E0.76923
G1 X78.056 Y90.723 E0.21027
G1 X77.612 Y88.850 E0.21199
G1 X76.882 Y87.068 E0.21199
G1 X75.914 Y85.467 E0.20600
G1 X74.646 Y83.947 E0.21791
G1 X73.194 Y82.683 E0.21199
G1 X71.563 Y81.659 E0.21199
G1 X69.793 Y80.900 E0.21199
G1 X67.934 Y80.426 E0.21122
G1 X63.159 Y79.806 E0.53021
G1 X58.363 Y79.600 E0.52849
G1 X56.540 Y79.600 E0.20073
G1 X56.540 Y70.475 E1.00467
G1 F3600.000 E-2.40000
G1 X63.677 Y70.957 F15000.000
G1 X129.919 Y83.395 F15000.000
G1 E2.40000 F3600.000
G1 X129.978 Y83.267 E0.01553 F1350.000
G1 X130.046 Y83.184 E0.01183
G1 X130.183 Y83.097 E0.01779
G1 X130.286 Y83.070 E0.01178
G1 X130.458 Y83.082 E0.01895 F1350.000
G1 X130.602 Y83.153 E0.01769
G1 X130.711 Y83.270 E0.01762
G1 X130.768 Y83.397 E0.01529
G1 X130.765 Y85.530 E0.23490
G1 X130.804 Y86.293 E0.08411
G1 X130.917 Y87.077 E0.08713
G1 X131.103 Y87.844 E0.08697
G1 X131.360 Y88.590 E0.08678
G1 X131.684 Y89.305 E0.08646
G1 X132.070 Y89.984 E0.08603
G1 X132.510 Y90.618 E0.08499
G1 X133.005 Y91.212 E0.08516
G1 X133.547 Y91.754 E0.08435
G1 X134.127 Y92.245 E0.08368
G1 X134.739 Y92.680 E0.08265
G1 X135.379 Y93.062 E0.08206
G1 X136.031 Y93.387 E0.08022
G1 X136.987 Y93.784 E0.11390
G1 X138.041 Y94.094 E0.12098
G1 X139.646 Y94.600 E0.18533
G1 X141.091 Y95.347 E0.17914
G1 X142.387 Y96.331 E0.17913
G1 X143.496 Y97.522 E0.17914
G1 X144.385 Y98.885 E0.17913
G1 X145.027 Y100.379 E0.17914
G1 X145.405 Y101.962 E0.17914
G1 X145.506 Y103.586 E0.17914
G1 X145.328 Y105.203 E0.17914
G1 X144.876 Y106.766 E0.17914
G1 X144.163 Y108.229 E0.17914
G1 X143.210 Y109.548 E0.17914
G1 X142.046 Y110.684 E0.17914
G1 X140.705 Y111.605 E0.17914
G1 X139.226 Y112.283 E0.17914
G1 X137.653 Y112.698 E0.17914
G1 X135.983 Y112.842 E0.18453
G1 X123.687 Y112.842 E1.35374
G1 X123.648 Y112.913 E0.00894
G1 X123.179 Y112.748 E0.05466
G1 X123.328 Y111.881 E0.09684
G1 X123.328 Y111.250 E0.06941
G1 X123.928 Y111.479 E0.07074
G1 X124.182 Y111.530 E0.02851
G1 X124.441 Y111.537 E0.02847
G1 X124.697 Y111.501 E0.02851
G1 X124.944 Y111.422 E0.02849
G1 X125.174 Y111.304 E0.02851
G1 X125.397 Y111.136 E0.03076
G1 X128.512 Y111.136 E0.34298
G1 X128.735 Y111.304 E0.03076
G1 X128.965 Y111.422 E0.02850
G1 X129.212 Y111.501 E0.02849
G1 X129.468 Y111.537 E0.02849
G1 X129.727 Y111.530 E0.02850
G1 X129.981 Y111.479 E0.02850
G1 X130.223 Y111.387 E0.02851
G1 X130.445 Y111.256 E0.02848
G1 X130.643 Y111.089 E0.02849
G1 X130.810 Y110.891 E0.02851
G1 X130.942 Y110.668 E0.02849
G1 X131.034 Y110.426 E0.02850
G1 X131.133 Y109.931 E0.05560
G1 X131.622 Y110.349 E0.07083
G1 X132.175 Y110.688 E0.07149
G1 X132.775 Y110.937 E0.07151
G1 X133.407 Y111.088 E0.07154
G1 X134.010 Y111.136 E0.06659
G1 X136.080 Y111.136 E0.22792
G1 X137.362 Y111.025 E0.14165
G1 X138.653 Y110.685 E0.14704
G1 X139.868 Y110.128 E0.14705
G1 X140.876 Y109.436 E0.13470
G1 X140.969 Y109.372 E0.01234
G1 X141.924 Y108.439 E0.14705
G1 X142.706 Y107.356 E0.14704
G1 X143.242 Y106.257 E0.13470
G1 X143.291 Y106.156 E0.01234
G1 X143.662 Y104.873 E0.14704
G1 X143.809 Y103.545 E0.14705
G1 X143.726 Y102.213 E0.14704
G1 X143.442 Y101.022 E0.13471
G1 X143.416 Y100.913 E0.01234
G1 X142.888 Y99.686 E0.14705
G1 X142.159 Y98.568 E0.14703
G1 X141.249 Y97.590 E0.14705
G1 X140.185 Y96.783 E0.14703
G1 X138.998 Y96.169 E0.14706
G1 X137.795 Y95.790 E0.13895
G1 X136.817 Y95.526 E0.11149
G1 X136.025 Y95.237 E0.09284
G1 X135.257 Y94.866 E0.09390
G1 X134.513 Y94.411 E0.09604
G1 X133.809 Y93.886 E0.09667
G1 X133.156 Y93.302 E0.09647
G1 X132.553 Y92.665 E0.09655
G1 X132.010 Y91.982 E0.09612
G1 X131.524 Y91.256 E0.09611
G1 X131.102 Y90.500 E0.09536
G1 X130.742 Y89.710 E0.09560
G1 X130.447 Y88.896 E0.09530
G1 X130.217 Y88.064 E0.09508
G1 X130.052 Y87.217 E0.09498
G1 X129.954 Y86.361 E0.09486
G1 X129.922 Y85.480 E0.09703
G1 X129.919 Y83.470 E0.22135
G1 F3600.000 E-2.40000
G1 X131.635 Y111.220 F15000.000
G1 E2.40000 F3600.000
G1 X131.840 Y111.345 E0.02648 F1350.000
G1 X132.534 Y111.633 E0.08262 F1350.000
G1 X132.439 Y112.106 E0.05317
G1 X130.747 Y112.106 E0.18634
G1 X131.543 Y111.163 E0.13589
G1 X131.571 Y111.181 E0.00364
G1 F3600.000 E-2.40000
G1 X123.219 Y107.742 F15000.000
G1 E2.40000 F3600.000
G1 X123.219 Y108.958 E0.13379 F1350.000
G1 X122.840 Y109.461 E0.06940
G1 X122.574 Y108.986 E0.05995
G1 X122.096 Y108.393 E0.08384
G1 X121.524 Y107.890 E0.08384
G1 X120.994 Y107.564 E0.06856
G1 X121.115 Y107.136 E0.04899
G1 X123.219 Y107.136 E0.23162 F1350.000
G1 X123.219 Y107.667 E0.05855
G1 F3600.000 E-2.40000
G1 X116.686 Y107.540 F15000.000
G1 E2.40000 F3600.000
G1 X115.888 Y108.130 E0.10920 F1350.000
G1 X115.361 Y108.679 E0.08384
G1 X114.935 Y109.310 E0.08384
G1 X114.621 Y110.004 E0.08385
G1 X114.398 Y110.860 E0.09740
G1 X113.904 Y110.818 E0.05463
G1 X113.865 Y110.364 E0.05017
G1 X97.606 Y110.364 E1.79012
G1 X97.370 Y113.311 E0.32552
G1 X96.937 Y115.079 E0.20034
G1 X96.231 Y116.748 E0.19956
G1 X95.263 Y118.289 E0.20034
G1 X94.064 Y119.655 E0.20008
G1 X92.663 Y120.812 E0.20008
G1 X91.095 Y121.730 E0.20008
G1 X88.485 Y122.742 E0.30820
G1 X87.638 Y123.238 E0.10811
G1 X86.880 Y123.864 E0.10814
G1 X86.232 Y124.602 E0.10812
G1 X85.710 Y125.433 E0.10811
G1 X85.327 Y126.338 E0.10818
G1 X85.094 Y127.295 E0.10842
G1 X85.019 Y128.225 E0.10275
